X: 1
T: Dusty Miller, The
M: 9/8
L: 1/8
R: slip jig
K: Dmaj
|: A3 A2G A2G | A3 A2G B2d | A3 A2G A2G |1 BBB B2A B2d :|2 B2G G2A B2d |: A2D DDD A3 | A2D DDD B2d | A2D DDD G2A |1 B2G G2A B2d :|2 BBB B2A B2d |
